img/context/logo.svg

<svg width="70" height="50" viewBox="0 0 70 50" fill="none" xmlns="http://www.w3.org/2000/svg">
<path d="M22.6727 0.117805C21.0173 0.328659 19.4303 1.52349 18.7326 3.06974C18.4179 3.74446 18.3769 4.06777 18.3358 5.55779L18.2811 7.27272L10.3324 7.31489L2.37011 7.35706L1.71343 7.75065C0.974653 8.20047 0.317966 9.04388 0.112751 9.817C0.0169841 10.1544 -0.0103779 15.8755 0.00330309 25.9964L0.044346 41.6416L5.70827 29.8339C8.82753 23.3537 11.5774 17.7169 11.81 17.3374C12.795 15.749 14.7514 14.2449 16.7625 13.5139L17.8296 13.1203L36.5452 13.0782L55.2471 13.0501V11.4898C55.2471 9.26878 54.7819 8.35509 53.2634 7.62414L52.5793 7.28678H44.8359H37.0924L37.024 5.69836C36.9693 4.5457 36.8735 3.91314 36.6546 3.32276C36.0116 1.62188 34.3699 0.370831 32.4546 0.103748C31.3464 -0.0368195 23.7808 -0.0368195 22.6727 0.117805ZM32.7692 3.77258C33.4396 4.18022 33.6312 4.70033 33.6312 6.09195V7.28678H27.6115H21.5919V6.31686C21.5919 5.7827 21.6329 5.15014 21.674 4.91117C21.7834 4.39108 22.4127 3.67418 22.8642 3.58984C23.0284 3.56172 25.231 3.51955 27.7483 3.5055C32.0715 3.49144 32.3588 3.5055 32.7692 3.77258Z" fill="#78B1EA"/>
<path d="M17.8296 16.7892C16.8172 17.0984 15.326 18.1948 14.7925 19.0242C14.5462 19.4178 11.3722 25.898 7.74676 33.4324C0.673691 48.1499 0.755777 47.9812 1.27565 48.9792C1.41246 49.2323 1.74081 49.5556 2.01443 49.6961C2.47958 49.9351 3.71087 49.9492 26.7907 49.9913C42.7974 50.0194 51.4438 49.9773 52.1415 49.8929C53.6054 49.6821 54.5768 49.1901 55.6575 48.0655L56.5468 47.1378L63.2231 33.1794C67.1633 24.9702 69.9405 19.0101 69.9815 18.6868C70.091 17.8856 69.7079 17.1546 69.0102 16.8313C68.4766 16.5783 67.4916 16.5642 43.4815 16.5783C21.7971 16.5924 18.4179 16.6205 17.8296 16.7892Z" fill="#78B1EA"/>
</svg>

<svg width="70" height="50" xmlns="http://www.w3.org/2000/svg">
    <path
        d="M22.673.118c-1.656.21-3.243 1.405-3.94 2.952-.315.674-.356.998-.397 2.488l-.055 1.715-7.949.042-7.962.042-.657.394C.975 8.2.318 9.044.113 9.817c-.096.337-.123 6.059-.11 16.18l.041 15.645 5.664-11.808c3.12-6.48 5.87-12.117 6.102-12.497.985-1.588 2.941-3.092 4.952-3.823l1.068-.394 18.715-.042 18.702-.028v-1.56c0-2.221-.465-3.135-1.984-3.866l-.684-.337H37.092l-.068-1.589c-.055-1.152-.15-1.785-.37-2.375-.642-1.701-2.284-2.952-4.2-3.22-1.108-.14-8.673-.14-9.781.015zm10.096 3.655c.67.407.862.927.862 2.319v1.195h-12.04v-.97c0-.534.042-1.167.083-1.406.11-.52.739-1.237 1.19-1.321.164-.028 2.367-.07 4.884-.084 4.323-.015 4.61 0 5.021.267zM17.83 16.79c-1.013.308-2.504 1.405-3.037 2.234-.247.394-3.42 6.874-7.046 14.408C.674 48.15.756 47.982 1.276 48.98c.136.253.465.577.738.717.466.24 1.697.253 24.777.295 16.006.028 24.653-.014 25.35-.098 1.464-.21 2.436-.703 3.517-1.828l.889-.927 6.676-13.959c3.94-8.209 6.718-14.169 6.758-14.492.11-.801-.273-1.532-.97-1.856-.534-.253-1.52-.267-25.53-.253-21.684.014-25.063.043-25.651.211z"
        fill="#78B1EA" />
</svg>
